X:1
T:Psalm 145
T:V 5
L:1/4
M:16/4
I:linebreak $
K:F
V:1 treble nm="Pipe Organ" snm="Org."
V:1
 F2 F G A2 c2 B A F G A3 z |$ A2 G A B2 A2 G F F E F3 z |$[M:16/4] C2 F G A2 B2 A G A B c3 z |$ %3
w: Hul sal, o HEER, u goed- heid bly her- dink|en vir u heil die ju- bels op laat klink:|ge- na- dig, goed, lank- moe- dig soos wel- eer,|
[M:16/4] d2 c B A F B A G2 G2 F4 |] %4
w: barm- har- tig en 'n red- der is die HEER.|

